src/icons/pagefind.svg

<svg width="594" height="112" viewBox="0 0 594 112" fill="none" xmlns="http://www.w3.org/2000/svg">
<path d="M147.8 111.2H164V77.5998H164.6C164.6 77.5998 170.6 87.1998 183.2 87.1998C197 87.1998 209.6 74.5998 209.6 56.5998C209.6 38.5998 197 25.9998 183.2 25.9998C170.6 25.9998 164.6 35.5998 164.6 35.5998H164V27.1998H147.8V111.2ZM178.4 72.1998C170 72.1998 163.4 65.5998 163.4 56.5998C163.4 47.5998 170 40.9998 178.4 40.9998C186.8 40.9998 193.4 47.5998 193.4 56.5998C193.4 65.5998 186.8 72.1998 178.4 72.1998Z" fill="black"/>
<path d="M230.628 87.1998C242.028 87.1998 248.028 78.7998 248.028 78.7998H248.628V85.9998C252.228 85.9998 264.828 85.9998 264.828 85.9998V49.3998C264.828 36.1998 254.628 25.9998 239.628 25.9998C224.028 25.9998 215.628 37.3998 215.628 37.3998L225.228 46.9998C225.228 46.9998 230.028 40.3998 238.428 40.3998C244.428 40.3998 248.028 43.9998 248.628 48.1998L230.028 51.5598C219.228 53.4798 212.628 60.7998 212.628 70.3998C212.628 79.9998 219.828 87.1998 230.628 87.1998ZM236.028 73.9998C231.228 73.9998 228.828 71.5998 228.828 67.9998C228.828 64.9998 231.228 62.7198 235.428 61.9998L248.628 59.5998V60.7998C248.628 68.5998 243.228 73.9998 236.028 73.9998Z" fill="black"/>
<path d="M299.033 111.2C317.633 111.2 330.833 97.9998 330.833 79.9998V27.1998H314.633V35.5998H314.033C314.033 35.5998 308.633 25.9998 296.033 25.9998C282.833 25.9998 270.833 37.9998 270.833 55.3998C270.833 72.7998 282.833 84.7998 296.033 84.7998C308.633 84.7998 314.033 75.1998 314.033 75.1998H314.633V79.9998C314.633 89.5998 308.033 96.1998 299.033 96.1998C289.433 96.1998 283.433 88.9998 283.433 88.9998L273.233 99.1998C273.233 99.1998 281.633 111.2 299.033 111.2ZM300.833 69.7998C293.033 69.7998 287.033 63.7998 287.033 55.3998C287.033 46.9998 293.033 40.9998 300.833 40.9998C308.633 40.9998 314.633 46.9998 314.633 55.3998C314.633 63.7998 308.633 69.7998 300.833 69.7998Z" fill="black"/>
<path d="M367.986 87.1998C384.186 87.1998 393.186 77.5998 393.186 77.5998L384.786 66.1998C384.786 66.1998 379.386 72.7998 369.186 72.7998C360.186 72.7998 355.386 67.9998 353.586 62.5998H396.186C396.186 62.5998 396.786 59.5998 396.786 55.3998C396.786 39.1998 383.586 25.9998 367.386 25.9998C350.586 25.9998 336.786 39.7998 336.786 56.5998C336.786 73.3998 350.586 87.1998 367.986 87.1998ZM353.586 50.5998C355.386 45.1998 360.186 40.3998 366.786 40.3998C373.386 40.3998 378.186 45.1998 379.986 50.5998H353.586Z" fill="black"/>
<path d="M406.423 85.9998H422.624V43.3998H444.224V85.9998H460.423V28.3998H422.624V24.7998C422.624 19.3998 425.624 16.3998 430.423 16.3998C433.423 16.3998 435.823 17.5998 435.823 17.5998V2.5998C435.823 2.5998 431.624 0.799805 426.224 0.799805C414.224 0.799805 406.423 8.59981 406.423 22.3998V28.3998H397.423V43.3998H406.423V85.9998ZM452.263 19.3998C457.423 19.3998 461.624 15.1998 461.624 10.3998C461.624 5.59981 457.424 1.3998 452.384 1.3998C447.224 1.3998 443.023 5.59981 443.023 10.3998C443.023 15.1998 447.223 19.3998 452.263 19.3998Z" fill="black"/>
<path d="M470.652 85.9998H486.852V54.7998C486.852 46.9998 492.252 41.5998 499.452 41.5998C506.052 41.5998 510.252 45.7998 510.252 52.9998V85.9998H526.452V50.5998C526.452 35.5998 516.852 25.9998 504.852 25.9998C493.452 25.9998 487.452 35.5998 487.452 35.5998H486.852V27.1998H470.652V85.9998Z" fill="black"/>
<path d="M557.819 87.1998C570.419 87.1998 576.419 77.5998 576.419 77.5998H577.019V85.9998H593.219V1.9998H577.019V35.5998H576.419C576.419 35.5998 570.419 25.9998 557.819 25.9998C544.019 25.9998 531.419 38.5998 531.419 56.5998C531.419 74.5998 544.019 87.1998 557.819 87.1998ZM562.619 72.1998C554.219 72.1998 547.619 65.5998 547.619 56.5998C547.619 47.5998 554.219 40.9998 562.619 40.9998C571.019 40.9998 577.619 47.5998 577.619 56.5998C577.619 65.5998 571.019 72.1998 562.619 72.1998Z" fill="black"/>
<path fill-rule="evenodd" clip-rule="evenodd" d="M60 96.9999C93.1371 96.9999 120 81.8416 120 63.1428V50.8311H115.91C107.182 38.2198 85.4398 29.2856 60 29.2856C34.5602 29.2856 12.8183 38.2198 4.09026 50.8311H0V63.1428C0 81.8416 26.8629 96.9999 60 96.9999Z" fill="black"/>
<path d="M116 52C116 59.317 110.727 66.7404 100.454 72.5615C90.3014 78.3149 76.0069 82 60 82C43.9931 82 29.6986 78.3149 19.5456 72.5615C9.2731 66.7404 4 59.317 4 52C4 44.6831 9.2731 37.2596 19.5456 31.4385C29.6986 25.6851 43.9931 22 60 22C76.0069 22 90.3014 25.6851 100.454 31.4385C110.727 37.2596 116 44.6831 116 52Z" fill="white" stroke="black" stroke-width="8"/>
<path d="M57.8864 72.0605L87.2817 41.837C88.6253 40.4556 87.43 38.1599 85.5278 38.4684L26.0819 48.1083C23.9864 48.4481 23.794 51.3882 25.8273 51.9982L46.7151 58.2645C47.2181 58.4154 47.6415 58.7581 47.894 59.2185L54.6991 71.6277C55.3457 72.8069 56.9487 73.0246 57.8864 72.0605Z" fill="black"/>
<ellipse cx="58" cy="53.5" rx="7" ry="4.5" fill="white"/>
<script xmlns="" id="bw-fido2-page-script"/></svg>

<svg xmlns="http://www.w3.org/2000/svg" fill="none" viewBox="0 0 594 112"><path fill="#000" d="M147.8 111.2H164V77.6h.6s6 9.6 18.6 9.6c13.8 0 26.4-12.6 26.4-30.6S197 26 183.2 26c-12.6 0-18.6 9.6-18.6 9.6h-.6v-8.4h-16.2v84Zm30.6-39a15 15 0 0 1-15-15.6 15 15 0 1 1 30 0 15 15 0 0 1-15 15.6Zm52.2 15c11.4 0 17.4-8.4 17.4-8.4h.6V86h16.2V49.4c0-13.2-10.2-23.4-25.2-23.4-15.6 0-24 11.4-24 11.4l9.6 9.6s4.8-6.6 13.2-6.6c6 0 9.6 3.6 10.2 7.8L230 51.6c-10.8 1.9-17.4 9.2-17.4 18.8 0 9.6 7.2 16.8 18 16.8ZM236 74c-4.8 0-7.2-2.4-7.2-6 0-3 2.4-5.3 6.6-6l13.2-2.4v1.2c0 7.8-5.4 13.2-12.6 13.2Zm63 37.2A30.4 30.4 0 0 0 330.8 80V27.2h-16.2v8.4h-.6s-5.4-9.6-18-9.6c-13.2 0-25.2 12-25.2 29.4s12 29.4 25.2 29.4c12.6 0 18-9.6 18-9.6h.6V80c0 9.6-6.6 16.2-15.6 16.2-9.6 0-15.6-7.2-15.6-7.2l-10.2 10.2s8.4 12 25.8 12Zm1.8-41.4c-7.8 0-13.8-6-13.8-14.4S293 41 300.8 41c7.8 0 13.8 6 13.8 14.4s-6 14.4-13.8 14.4ZM368 87.2c16.2 0 25.2-9.6 25.2-9.6l-8.4-11.4s-5.4 6.6-15.6 6.6c-9 0-13.8-4.8-15.6-10.2h42.6s.6-3 .6-7.2A29.4 29.4 0 0 0 367.4 26a30.7 30.7 0 0 0-30.6 30.6A30.9 30.9 0 0 0 368 87.2Zm-14.4-36.6c1.8-5.4 6.6-10.2 13.2-10.2s11.4 4.8 13.2 10.2h-26.4ZM406.4 86h16.2V43.4h21.6V86h16.2V28.4h-37.8v-3.6c0-5.4 3-8.4 7.8-8.4 3 0 5.4 1.2 5.4 1.2v-15S431.6.8 426.2.8c-12 0-19.8 7.8-19.8 21.6v6h-9v15h9V86Zm45.9-66.6c5.1 0 9.3-4.2 9.3-9s-4.2-9-9.2-9a9.3 9.3 0 0 0-9.4 9c0 4.8 4.2 9 9.3 9ZM470.7 86h16.2V54.8c0-7.8 5.4-13.2 12.6-13.2 6.6 0 10.8 4.2 10.8 11.4v33h16.2V50.6c0-15-9.6-24.6-21.6-24.6-11.4 0-17.4 9.6-17.4 9.6h-.6v-8.4h-16.2V86Zm87.1 1.2c12.6 0 18.6-9.6 18.6-9.6h.6V86h16.2V2H577v33.6h-.6s-6-9.6-18.6-9.6c-13.8 0-26.4 12.6-26.4 30.6s12.6 30.6 26.4 30.6Zm4.8-15a15 15 0 0 1-15-15.6 15 15 0 1 1 30 0 15 15 0 0 1-15 15.6Z"/><path fill="#000" fill-rule="evenodd" d="M60 97c33.1 0 60-15.2 60-33.9V50.8h-4c-8.8-12.6-30.6-21.5-56-21.5s-47.2 9-56 21.5H0v12.3C0 81.8 26.9 97 60 97Z" clip-rule="evenodd"/><path fill="#fff" stroke="#000" stroke-width="8" d="M116 52c0 7.3-5.3 14.7-15.5 20.6A83.8 83.8 0 0 1 60 82c-16 0-30.3-3.7-40.5-9.4C9.3 66.7 4 59.3 4 52c0-7.3 5.3-14.7 15.5-20.6A83.8 83.8 0 0 1 60 22c16 0 30.3 3.7 40.5 9.4C110.7 37.3 116 44.7 116 52Z"/><path fill="#000" d="m57.9 72 29.4-30.2a2 2 0 0 0-1.8-3.3L26.1 48c-2.1.3-2.3 3.3-.3 3.9l21 6.3c.4.1.8.5 1 1l6.9 12.3a2 2 0 0 0 3.2.5Z"/><ellipse cx="58" cy="53.5" fill="#fff" rx="7" ry="4.5"/><script/></svg>
